build-source/logos/beinsports2.light.svg

<?xml version="1.0" encoding="UTF-8" standalone="no"?>
<svg
   xmlns:dc="http://purl.org/dc/elements/1.1/"
   xmlns:cc="http://creativecommons.org/ns#"
   xmlns:rdf="http://www.w3.org/1999/02/22-rdf-syntax-ns#"
   xmlns:svg="http://www.w3.org/2000/svg"
   xmlns="http://www.w3.org/2000/svg"
   xmlns:sodipodi="http://sodipodi.sourceforge.net/DTD/sodipodi-0.dtd"
   xmlns:inkscape="http://www.inkscape.org/namespaces/inkscape"
   height="65.108345mm"
   width="169.33333mm"
   version="1.1"
   viewBox="0 0 600.01177 230.69923"
   id="svg2"
   inkscape:version="0.91 r"
   sodipodi:docname="beinsports2.svg">
  <metadata
     id="metadata104">
    <rdf:RDF>
      <cc:Work
         rdf:about="">
        <dc:format>image/svg+xml</dc:format>
        <dc:type
           rdf:resource="http://purl.org/dc/dcmitype/StillImage" />
        <dc:title></dc:title>
      </cc:Work>
    </rdf:RDF>
  </metadata>
  <sodipodi:namedview
     pagecolor="#ffffff"
     bordercolor="#666666"
     borderopacity="1"
     objecttolerance="10"
     gridtolerance="10"
     guidetolerance="10"
     inkscape:pageopacity="0"
     inkscape:pageshadow="2"
     inkscape:window-width="1680"
     inkscape:window-height="1000"
     id="namedview102"
     showgrid="false"
     fit-margin-top="0"
     fit-margin-left="0"
     fit-margin-right="0"
     fit-margin-bottom="0"
     inkscape:zoom="0.52167693"
     inkscape:cx="-30.665928"
     inkscape:cy="115.34689"
     inkscape:window-x="0"
     inkscape:window-y="0"
     inkscape:window-maximized="1"
     inkscape:current-layer="svg2" />
  <defs
     id="defs4">
    <linearGradient
       id="i"
       gradientUnits="userSpaceOnUse"
       gradientTransform="matrix(135.24198,-103.59152,103.59152,135.24198,120.41177,22.098249)">
      <stop
         stop-color="#190031"
         offset="0"
         id="stop7" />
      <stop
         stop-color="#190031"
         offset=".0060577"
         id="stop9" />
      <stop
         stop-color="#5c2d91"
         offset="1"
         id="stop11" />
    </linearGradient>
    <linearGradient
       id="h"
       gradientUnits="userSpaceOnUse"
       gradientTransform="matrix(135.24198,-103.59152,103.59152,135.24198,184.70271,105.99947)">
      <stop
         stop-color="#190031"
         offset="0"
         id="stop14" />
      <stop
         stop-color="#190031"
         offset=".0060577"
         id="stop16" />
      <stop
         stop-color="#5c2d91"
         offset="1"
         id="stop18" />
    </linearGradient>
    <linearGradient
       id="g"
       gradientUnits="userSpaceOnUse"
       gradientTransform="matrix(135.24198,-103.59152,103.59152,135.24198,214.46315,144.80004)">
      <stop
         stop-color="#190031"
         offset="0"
         id="stop21" />
      <stop
         stop-color="#190031"
         offset=".0060577"
         id="stop23" />
      <stop
         stop-color="#5c2d91"
         offset="1"
         id="stop25" />
    </linearGradient>
    <linearGradient
       id="f"
       gradientUnits="userSpaceOnUse"
       gradientTransform="matrix(135.24198,-103.59152,103.59152,135.24198,253.80372,196.20079)">
      <stop
         stop-color="#190031"
         offset="0"
         id="stop28" />
      <stop
         stop-color="#190031"
         offset=".0060577"
         id="stop30" />
      <stop
         stop-color="#5c2d91"
         offset="1"
         id="stop32" />
    </linearGradient>
    <linearGradient
       id="e"
       gradientUnits="userSpaceOnUse"
       gradientTransform="matrix(135.24198,-103.59152,103.59152,135.24198,227.09333,214.30106)">
      <stop
         stop-color="#190031"
         offset="0"
         id="stop35" />
      <stop
         stop-color="#190031"
         offset=".0060577"
         id="stop37" />
      <stop
         stop-color="#5c2d91"
         offset="1"
         id="stop39" />
    </linearGradient>
    <linearGradient
       id="d"
       gradientUnits="userSpaceOnUse"
       gradientTransform="matrix(135.24198,-103.59152,103.59152,135.24198,250.61368,245.00151)">
      <stop
         stop-color="#190031"
         offset="0"
         id="stop42" />
      <stop
         stop-color="#190031"
         offset=".0060577"
         id="stop44" />
      <stop
         stop-color="#5c2d91"
         offset="1"
         id="stop46" />
    </linearGradient>
    <linearGradient
       id="c"
       gradientUnits="userSpaceOnUse"
       gradientTransform="matrix(135.24198,-103.59152,103.59152,135.24198,282.20414,286.20211)">
      <stop
         stop-color="#190031"
         offset="0"
         id="stop49" />
      <stop
         stop-color="#190031"
         offset=".0060577"
         id="stop51" />
      <stop
         stop-color="#5c2d91"
         offset="1"
         id="stop53" />
    </linearGradient>
    <linearGradient
       id="b"
       gradientUnits="userSpaceOnUse"
       gradientTransform="matrix(135.24198,-103.59152,103.59152,135.24198,214.29314,197.60082)">
      <stop
         stop-color="#190031"
         offset="0"
         id="stop56" />
      <stop
         stop-color="#190031"
         offset=".0060577"
         id="stop58" />
      <stop
         stop-color="#5c2d91"
         offset="1"
         id="stop60" />
    </linearGradient>
    <linearGradient
       id="a"
       gradientUnits="userSpaceOnUse"
       gradientTransform="matrix(135.24198,-103.59152,103.59152,135.24198,271.67398,272.50191)">
      <stop
         stop-color="#190031"
         offset="0"
         id="stop63" />
      <stop
         stop-color="#190031"
         offset=".0060577"
         id="stop65" />
      <stop
         stop-color="#5c2d91"
         offset="1"
         id="stop67" />
    </linearGradient>
    <linearGradient
       id="j"
       gradientUnits="userSpaceOnUse"
       gradientTransform="matrix(133.22195,-76.91413,76.914126,133.22196,475.82697,137.99995)">
      <stop
         stop-color="#643e95"
         offset="0"
         id="stop70" />
      <stop
         stop-color="#643e95"
         offset=".48543"
         id="stop72" />
      <stop
         stop-color="#342d40"
         offset="1"
         id="stop74" />
    </linearGradient>
  </defs>
  <path
     inkscape:connector-curvature="0"
     style="fill:#ffffff"
     id="path78"
     d="M 0.03000044,4.3979892 C 0.03000044,4.3979892 0,72.498987 0,103.39943 0,134.29989 25.560375,163.40031 61.690904,163.40031 97.831434,163.40031 123.36181,132.39986 123.36181,101.0994 123.36181,69.798948 98.471443,39.698507 61.670904,39.698507 24.870365,39.698507 8.9101305,68.798933 8.9101305,68.798933 L 8.9101305,4.3979892 C 8.9101305,1.997954 6.9201014,-0.00207524 4.4700655,-0.00207524 2.0200296,-0.00207524 0.03000044,1.997954 0.03000044,4.3979892 M 9.0901332,101.0994 C 9.0901332,71.99898 32.570478,48.398634 61.550902,48.398634 90.511327,48.398634 114.00167,71.99898 114.00167,101.0994 114.00167,130.29983 90.511327,153.90017 61.550902,153.90017 32.570478,153.90017 9.0901332,130.29983 9.0901332,101.0994" />
  <path
     inkscape:connector-curvature="0"
     style="fill:#ffffff"
     id="path80"
     d="M 129.03189,101.2994 C 129.03189,135.3999 156.7223,163.10031 190.8528,163.10031 213.09313,163.10031 232.58341,151.40014 243.48357,133.69988 244.89359,131.59985 244.26358,128.79981 242.15355,127.39979 240.03352,125.89976 237.15348,126.49977 235.74346,128.5998 226.51332,143.70003 209.85308,153.80017 190.8528,153.80017 161.83238,153.80017 138.30203,130.29983 138.30203,101.2994 138.30203,72.198983 161.83238,48.698638 190.8528,48.698638 218.2632,48.698638 240.76353,69.698946 243.20357,96.499339 L 181.99267,96.499339 C 179.41263,96.499339 177.3626,98.499368 177.3626,101.0994 177.3626,103.69944 179.45263,105.79947 182.03267,105.79947 L 248.01364,105.79947 C 251.49369,105.79947 252.69371,103.29943 252.69371,101.2994 252.69371,67.098908 225.0033,39.398502 190.8528,39.398502 156.7223,39.398502 129.03189,67.098908 129.03189,101.2994" />
  <path
     inkscape:connector-curvature="0"
     style="fill:#ffffff"
     id="path82"
     d="M 270.40397,39.398502 270.43397,39.398502 270.40397,39.398502 Z M 270.40397,39.398502 C 264.41388,39.398502 259.87381,44.098571 259.54381,48.398634 L 259.54381,155.6002 C 259.87381,159.90026 264.41388,164.60033 270.40397,164.60033 276.40405,164.60033 280.94412,159.90026 281.27413,155.6002 L 281.27413,48.398634 C 280.94412,44.098571 276.40405,39.398502 270.40397,39.398502 M 270.38397,39.398502 270.40397,39.398502 270.38397,39.398502 Z M 270.40397,164.60033 270.43397,164.60033 270.40397,164.60033 M 270.38397,164.60033 270.40397,164.60033 270.38397,164.60033" />
  <path
     inkscape:connector-curvature="0"
     style="fill:#ffffff"
     id="path84"
     d="M 451.68662,39.498504 451.70662,39.498504 451.68662,39.498504 Z M 451.68662,39.498504 C 445.77654,39.498504 441.32647,44.198573 440.99647,48.398634 L 440.99647,127.39979 C 440.99647,130.29983 439.20644,137.39993 432.38634,140.69998 417.71612,147.60008 410.15601,134.19989 410.15601,134.19989 L 361.2453,57.298764 C 355.60521,47.498621 338.16496,33.398414 314.44461,42.298545 291.58428,51.598681 291.30427,75.39903 291.30427,75.39903 L 291.30427,155.6002 C 291.63428,159.90026 296.17434,164.10032 302.16443,164.10032 308.15452,164.10032 312.75459,159.30025 312.75459,154.30018 L 312.75459,77.599062 C 312.75459,77.599062 311.66457,62.498841 329.06483,60.898817 339.22497,60.298808 344.23505,70.898964 344.23505,70.898964 344.23505,70.898964 388.7457,141.09999 393.26577,148.10009 397.78583,155.10019 416.0561,170.80042 439.78645,161.10028 463.7868,151.30014 462.36678,127.29979 462.36678,127.29979 L 462.37678,48.298633 C 462.04677,44.098571 457.57671,39.498504 451.68662,39.498504 M 451.65662,39.498504 451.68662,39.498504 451.65662,39.498504 Z M 302.16443,164.10032 302.19443,164.10032 302.16443,164.10032 Z M 302.14443,164.10032 302.16443,164.10032 302.14443,164.10032 Z" />
  <path
     inkscape:connector-curvature="0"
     style="fill:#ffffff"
     id="path86"
     d="M 236.53347,190.90072 236.56347,227.40125 C 236.56347,229.20128 237.98349,230.6013 239.73352,230.6013 241.49354,230.6013 242.91356,229.20128 242.91356,227.40125 L 242.91356,211.40102 256.94377,211.40102 C 268.23393,211.40102 277.39407,202.20088 277.39407,190.90072 277.39407,179.60055 268.23393,170.40042 256.94377,170.40042 244.43359,170.40042 236.53347,179.20055 236.53347,190.90072 M 242.88356,190.90072 C 242.88356,182.7006 248.11364,176.50051 256.87377,176.50051 264.77388,176.50051 271.18398,183.0006 271.18398,190.90072 271.18398,198.80083 264.77388,205.10092 256.87377,205.10092 L 242.91356,205.10092 242.88356,190.90072 Z" />
  <path
     inkscape:connector-curvature="0"
     style="fill:#ffffff"
     id="path88"
     d="M 278.52409,200.50086 C 278.52409,217.1011 292.07428,230.7013 308.73453,230.7013 325.39477,230.7013 338.94497,217.1011 338.94497,200.50086 338.94497,183.80061 325.39477,170.30042 308.73453,170.30042 292.07428,170.30042 278.52409,183.80061 278.52409,200.50086 M 285.30418,200.50086 C 285.30418,187.60067 295.81434,177.10051 308.73453,177.10051 321.65472,177.10051 332.16487,187.60067 332.16487,200.50086 332.16487,213.40105 321.65472,223.9012 308.73453,223.9012 295.81434,223.9012 285.30418,213.40105 285.30418,200.50086" />
  <path
     inkscape:connector-curvature="0"
     style="fill:#ffffff"
     id="path90"
     d="M 384.71564,172.60045 C 382.84561,172.60045 381.32559,174.00047 381.32559,175.8005 381.32559,177.60052 382.84561,179.10054 384.71564,179.10054 L 398.12584,179.10054 398.12584,226.90124 C 398.12584,228.70127 399.57586,230.20129 401.37589,230.20129 403.16591,230.20129 404.61593,228.70127 404.61593,226.90124 L 404.61593,179.10054 417.86613,179.10054 C 419.73615,179.10054 421.24618,177.60052 421.24618,175.8005 421.24618,174.00047 419.73615,172.60045 417.86613,172.60045 L 384.71564,172.60045 Z" />
  <path
     inkscape:connector-curvature="0"
     style="fill:#ffffff"
     id="path92"
     d="M 210.58309,170.30042 C 194.35285,170.30042 190.8628,182.20059 190.8628,188.40068 190.8628,194.50077 195.77287,202.80089 210.72309,202.80089 225.69331,202.80089 225.0533,211.70102 225.0533,212.00103 225.0533,212.40103 225.86331,223.7012 210.76309,223.6012 198.40291,223.6012 196.93289,214.10106 197.10289,211.20101 197.10289,209.50099 195.70287,208.20097 193.99285,208.20097 192.27282,208.20097 190.8728,209.50099 190.8728,211.20101 190.6028,221.60117 198.77292,229.90129 210.66309,229.90129 225.55331,229.90129 231.34339,220.70115 231.34339,212.10103 231.34339,203.5009 224.52329,196.5008 210.69309,196.5008 196.85289,196.5008 197.00289,188.60068 197.00289,188.60068 197.00289,188.60068 196.12288,176.4005 210.72309,176.4005 225.34331,176.4005 224.22329,189.6007 224.22329,189.6007 224.22329,191.30072 225.60331,192.70074 227.29333,192.70074 228.98336,192.70074 230.35338,191.30072 230.35338,189.6007 230.35338,170.70042 212.15311,170.30042 210.68309,170.30042 L 210.58309,170.30042" />
  <path
     inkscape:connector-curvature="0"
     style="fill:#ffffff"
     id="path94"
     d="M 341.97501,190.90072 342.00502,227.40125 C 342.00502,229.20128 343.42504,230.6013 345.18506,230.6013 346.94509,230.6013 348.36511,229.20128 348.36511,227.40125 L 348.36511,211.40102 362.11531,211.40102 372.81547,228.80127 C 373.69548,230.4013 375.65551,230.9013 377.20553,230.00129 378.73555,229.10128 379.27556,227.20125 378.39555,225.60123 L 369.02541,210.201 C 377.05553,207.50096 382.83561,199.90085 382.83561,190.90072 382.83561,179.60055 373.68548,170.40042 362.39531,170.40042 349.87513,170.40042 341.97501,179.20055 341.97501,190.90072 M 348.32511,190.90072 C 348.32511,182.7006 353.55518,176.50051 362.31531,176.50051 370.22543,176.50051 376.63552,183.0006 376.63552,190.90072 376.63552,198.80083 370.22543,205.10092 362.31531,205.10092 L 348.35511,205.10092 348.32511,190.90072 Z" />
  <path
     style="fill:#ffffff"
     inkscape:connector-curvature="0"
     id="path96"
     d="M 455.11667,190.0007 C 455.11667,190.0007 456.23669,176.80051 441.62647,176.80051 427.02626,176.80051 427.90627,189.00069 427.90627,189.00069 427.90627,189.00069 427.75627,196.9008 441.59647,196.9008 455.42668,196.9008 462.23678,203.90091 462.23678,212.50103 462.23678,221.10116 456.44669,230.30129 441.55647,230.30129 429.6763,230.30129 421.50618,222.00117 421.77618,211.60102 421.77618,209.901 423.1762,208.60098 424.88623,208.60098 426.60625,208.60098 428.00628,209.901 428.00628,211.60102 427.83627,214.50106 429.30629,224.0012 441.66648,224.0012 456.7667,224.1012 455.95668,212.80104 455.95668,212.40103 455.95668,212.10103 456.59669,203.2009 441.62647,203.2009 426.66626,203.2009 421.76618,194.90078 421.76618,188.80069 421.76618,182.6006 425.25624,170.70042 441.48647,170.70042 441.48647,170.70042 461.24676,170.30042 461.24676,190.0007 461.24676,191.70073 459.88674,193.10075 458.18672,193.10075 456.49669,193.10075 455.11667,191.70073 455.11667,190.0007" />
  <path
     style="fill:#ffffff"
     d="M 484.917,39.499156 C 475.71687,39.499156 475.61785,48.599077 475.61785,48.599076 L 475.55731,122.59965 C 475.55731,167.60032 514.88678,164.10108 514.88678,164.10108 L 592.49882,164.10108 C 600.38893,164.10108 600.00884,155.7004 600.00884,155.7004 L 600.00884,47.999447 C 600.00884,39.99933 592.20779,39.499156 592.20779,39.499156 L 484.917,39.499156 Z M 539.60833,52.898053 C 557.9986,52.898053 570.7676,65.799596 570.7676,82.199837 570.7676,88.599931 567.41916,97.299235 565.02913,99.999275 562.62908,102.69931 561.2987,106.59878 530.09824,129.79912 L 570.0293,129.79912 570.0293,144.39923 519.03731,144.39923 C 519.03731,144.39923 507.10721,143.79939 507.10721,133.29924 507.10721,127.79916 512.91796,123.6993 512.91796,123.6993 520.90808,118.09922 548.2971,96.099489 550.25713,93.899457 552.20716,91.699425 555.06785,87.099919 555.06785,82.699854 555.06785,74.299731 548.75846,67.498162 539.60833,67.498162 530.47819,67.498162 524.18788,74.299731 524.18788,82.699854 524.18788,89.399953 528.24682,95.098755 534.5769,97.098785 L 521.0784,106.69872 C 512.28827,100.49863 508.64805,92.499998 508.40804,82.699854 508.03804,66.09961 522.42808,52.898053 539.60833,52.898053 Z"
     id="path98"
     inkscape:connector-curvature="0" />
</svg>

<svg xmlns="http://www.w3.org/2000/svg" width="600" viewBox="0 0 600.01177 230.69923"><g fill="#fff"><path d="m.03 4.398c0 0-.03 68.1-.03 99 0 30.9 25.56 60 61.691 60 36.14 0 61.67-31 61.67-62.3 0-31.3-24.89-61.4-61.691-61.4-36.801 0-52.761 29.1-52.761 29.1v-64.4c0-2.4-1.99-4.4-4.44-4.4-2.45 0-4.44 2-4.44 4.4m9.06 96.7c0-29.1 23.48-52.701 52.46-52.701 28.96 0 52.45 23.6 52.45 52.701 0 29.2-23.49 52.801-52.45 52.801-28.98 0-52.46-23.6-52.46-52.801"/><path d="m129.03 101.3c0 34.1 27.69 61.801 61.821 61.801 22.24 0 41.731-11.7 52.631-29.4 1.41-2.1.78-4.9-1.33-6.3-2.12-1.5-5-.9-6.41 1.2-9.23 15.1-25.89 25.2-44.891 25.2-29.02 0-52.55-23.5-52.55-52.5 0-29.1 23.53-52.601 52.55-52.601 27.41 0 49.911 21 52.35 47.801h-61.21c-2.58 0-4.63 2-4.63 4.6 0 2.6 2.09 4.7 4.67 4.7h65.981c3.48 0 4.68-2.5 4.68-4.5 0-34.2-27.69-61.901-61.841-61.901-34.13 0-61.821 27.7-61.821 61.901"/><path d="m270.4 39.4h.03-.03m0 0c-5.99 0-10.53 4.7-10.86 9v107.2c.33 4.3 4.87 9 10.86 9 6 0 10.54-4.7 10.87-9v-107.2c-.33-4.3-4.87-9-10.87-9m-.02 0h.02-.02m.02 125.2h.03-.03m-.02 0h.02-.02"/><path d="m451.69 39.499h.02-.02m0 0c-5.91 0-10.36 4.7-10.69 8.9v79c0 2.9-1.79 10-8.61 13.3-14.67 6.9-22.23-6.5-22.23-6.5l-48.911-76.901c-5.64-9.8-23.08-23.9-46.801-15-22.86 9.3-23.14 33.1-23.14 33.1v80.2c.33 4.3 4.87 8.5 10.86 8.5 5.99 0 10.59-4.8 10.59-9.8v-76.7c0 0-1.09-15.1 16.31-16.7 10.16-.6 15.17 10 15.17 10 0 0 44.511 70.2 49.03 77.2 4.52 7 22.79 22.7 46.521 13 24-9.8 22.58-33.8 22.58-33.8v-79c-.33-4.2-4.8-8.8-10.69-8.8m-.03 0h.03-.03m-149.49 124.6h.03-.03m-.02 0h.02-.02"/><path d="m236.53 190.9l.03 36.501c0 1.8 1.42 3.2 3.17 3.2 1.76 0 3.18-1.4 3.18-3.2v-16h14.03c11.29 0 20.45-9.2 20.45-20.5 0-11.3-9.16-20.5-20.45-20.5-12.51 0-20.41 8.8-20.41 20.5m6.35 0c0-8.2 5.23-14.4 13.99-14.4 7.9 0 14.31 6.5 14.31 14.4 0 7.9-6.41 14.2-14.31 14.2h-13.96l-.03-14.2"/><path d="m278.52 200.5c0 16.6 13.55 30.2 30.21 30.2 16.66 0 30.21-13.6 30.21-30.2 0-16.7-13.55-30.2-30.21-30.2-16.66 0-30.21 13.5-30.21 30.2m6.78 0c0-12.9 10.51-23.4 23.43-23.4 12.92 0 23.43 10.5 23.43 23.4 0 12.9-10.51 23.4-23.43 23.4-12.92 0-23.43-10.5-23.43-23.4"/><path d="m384.72 172.6c-1.87 0-3.39 1.4-3.39 3.2 0 1.8 1.52 3.3 3.39 3.3h13.41v47.801c0 1.8 1.45 3.3 3.25 3.3 1.79 0 3.24-1.5 3.24-3.3v-47.801h13.25c1.87 0 3.38-1.5 3.38-3.3 0-1.8-1.51-3.2-3.38-3.2h-33.15"/><path d="m210.58 170.3c-16.23 0-19.72 11.9-19.72 18.1 0 6.1 4.91 14.4 19.86 14.4 14.97 0 14.33 8.9 14.33 9.2 0 .4.81 11.7-14.29 11.6-12.36 0-13.83-9.5-13.66-12.4 0-1.7-1.4-3-3.11-3-1.72 0-3.12 1.3-3.12 3-.27 10.4 7.9 18.7 19.79 18.7 14.89 0 20.68-9.2 20.68-17.8 0-8.6-6.82-15.6-20.65-15.6-13.84 0-13.69-7.9-13.69-7.9 0 0-.88-12.2 13.72-12.2 14.62 0 13.5 13.2 13.5 13.2 0 1.7 1.38 3.1 3.07 3.1 1.69 0 3.06-1.4 3.06-3.1 0-18.9-18.2-19.3-19.67-19.3h-.1"/><path d="m341.98 190.9l.03 36.501c0 1.8 1.42 3.2 3.18 3.2 1.76 0 3.18-1.4 3.18-3.2v-16h13.75l10.7 17.4c.88 1.6 2.84 2.1 4.39 1.2 1.53-.9 2.07-2.8 1.19-4.4l-9.37-15.4c8.03-2.7 13.81-10.3 13.81-19.3 0-11.3-9.15-20.5-20.44-20.5-12.52 0-20.42 8.8-20.42 20.5m6.35 0c0-8.2 5.23-14.4 13.99-14.4 7.91 0 14.32 6.5 14.32 14.4 0 7.9-6.41 14.2-14.32 14.2h-13.96l-.03-14.2"/><path d="m455.12 190c0 0 1.12-13.2-13.49-13.2-14.6 0-13.72 12.2-13.72 12.2 0 0-.15 7.9 13.69 7.9 13.83 0 20.64 7 20.64 15.6 0 8.6-5.79 17.8-20.68 17.8-11.88 0-20.05-8.3-19.78-18.7 0-1.7 1.4-3 3.11-3 1.72 0 3.12 1.3 3.12 3-.17 2.9 1.3 12.4 13.66 12.4 15.1.1 14.29-11.2 14.29-11.6 0-.3.64-9.2-14.33-9.2-14.96 0-19.86-8.3-19.86-14.4 0-6.2 3.49-18.1 19.72-18.1 0 0 19.76-.4 19.76 19.3 0 1.7-1.36 3.1-3.06 3.1-1.69 0-3.07-1.4-3.07-3.1"/><path d="m484.92 39.499c-9.2 0-9.299 9.1-9.299 9.1l-.061 74c0 45 39.33 41.501 39.33 41.501h77.61c7.89 0 7.51-8.401 7.51-8.401v-107.7c0-8-7.801-8.5-7.801-8.5h-107.29m54.691 13.399c18.39 0 31.16 12.902 31.16 29.3 0 6.4-3.348 15.1-5.738 17.799-2.4 2.7-3.73 6.6-34.931 29.8h39.931v14.6h-50.992c0 0-11.93-.6-11.93-11.1 0-5.5 5.811-9.6 5.811-9.6 7.99-5.6 35.38-27.6 37.34-29.8 1.95-2.2 4.811-6.8 4.811-11.2 0-8.4-6.309-15.202-15.46-15.202-9.13 0-15.42 6.802-15.42 15.202 0 6.7 4.059 12.399 10.389 14.399l-13.499 9.6c-8.79-6.2-12.43-14.199-12.67-23.999-.37-16.6 14.02-29.802 31.2-29.802"/></g></svg>
